browser/images/lc_feedback.svg

<svg viewBox="0 0 24 24" xmlns="http://www.w3.org/2000/svg"><circle cx="12" cy="12" fill="#0063b1" r="10"/><path d="m12 3a9 9 0 0 0 -9 9 9 9 0 0 0 9 9 9 9 0 0 0 9-9 9 9 0 0 0 -9-9z" fill="#83beec"/><path d="m12 4.9999998c-2.2100002 0-4.0000002 1.79-4.0000002 4h2c0-1.1.9000002-2 2.0000002-2s2 .9 2 2c0 .55-.219844 1.0501562-.589844 1.4101562l-1.240234 1.259766c-.72.73-1.169922 1.730078-1.169922 2.830078v.5h2c0-1.5.449922-2.100078 1.169922-2.830078l.90039-.919922c.57-.57.929688-1.3700002.929688-2.2500002 0-2.21-1.79-4-4-4zm-1 12.0000002v2h2v-2z" fill="#fafafa"/></svg>

<?xml-stylesheet type="text/css" href="icons.css" ?>
<svg viewBox="0 0 24 24" xmlns="http://www.w3.org/2000/svg">
  <g id="symbol"
	 class="icn icn--highlight-color"  
     fill="#83beec" 
     stroke="#1e8bcd" 
	 stroke-linecap="round" 
	 stroke-linejoin="round"
      >
      <path d="M 12 2.5 A 9.5 9.5 0 0 0 2.5 12 A 9.5 9.5 0 0 0 12 21.5 A 9.5 9.5 0 0 0 21.5 12 A 9.5 9.5 0 0 0 12 2.5 z " />
  </g>
  <g id="background"
     class="icn icn--area-color"
     fill="#fafafa"
     >
      <path d="M 12 5 C 9.8 5 8 6.79 8 9 L 10 9 C 10 7.9 10.9 7 12 7 C 13.1 7 14 7.9 14 9 C 14 9.55 13.8 10 13.4 10.4 L 12.2 11.7 C 11.4 12.4 11 13.4 11 14.5 L 11 15 L 13 15 C 13 13.5 13.4 12.9 14.2 12.2 L 15 11.25 C 15.6 10.68 16 9.88 16 9 C 16 6.79 14.21 5 12 5 z M 11 17 L 11 19 L 13 19 L 13 17 L 11 17 z " />
  </g>
</svg>
